X: 3120
T: Beaton's Delight
R: reel
M: 4/4
K: Adorian
EA,A,A, EDEG|AEGD B,G,G,A|EA,A,A, EDEG|1 AEGB,A,2A,A:|2 AEGB,A,2Ag||
|:aAAA edea|gedc BGBd|1 aAAA edea|gedBA2Ag:|2 cABG AGED|EGDB,A,2||

